X:1
T:Title
%%score { ( 1 4 ) | ( 2 3 ) }
L:1/8
M:6/8
K:G
V:1 treble nm="Grand Piano"
V:4 treble 
V:2 bass 
V:3 bass 
V:1
 z3 z2[Q:1/4=76] [B,D] | [B,D]>[CE][B,D] [DB]2 [G,DG] | [G,CE]2 [G,CG] [B,D]2 [G,B,D] | %3
 [G,CE]2 [CEG] [A,DF]2 [CA] |[M:5/8] [B,G]-[B,G]- [B,G]3 |[M:1/8] [B,D] | %6
[M:3/4] [B,D]>[CE] [B,D] [DB]2 [G,DG] | [G,CE]2 [G,CG] [B,D]2 [G,B,D] | %8
 [G,CE]2 [CEG] [A,DF]2 [CA] | [CG]6 | A>B A [B,G]2 [B,D] | B>c B B2 A | B2 c d2 G | z2 z A3 | %14
 [G,B,G]2 [G,B,G] F2 D | A>B A [B,G]2 [B,D] | [B,G]2 [DB] [=Fd]2 [Ec] |[M:5/8] [DB]2 [CA] [B,G]2 |] %18
V:2
 z3 z2 [G,,G,] | [G,,G,]2 [G,,G,] [G,,G,]2 B,, | C,2 E, G,2 G,, | C,2 A,, D,2 [D,F,] | %4
[M:5/8] [G,,G,]-[G,,G,]- [G,,G,]3 |[M:1/8] [G,,G,] |[M:3/4] [G,,G,]2 [G,,G,] [G,,G,]2 B,, | %7
 C,2 E, G,2 G,, | C,2 A,, D,2 [D,F,] | [G,,G,]6 | [D,F,D]2 [D,F,C] [G,,G,]2 [G,,G,] | %11
 [G,D]2 z2 z2 | [G,D]2 [G,A,D] [G,B,G]2 [G,B,D] | [A,CD]2[K:bass] [G,B,D] .[D,F,D]3 | %14
 z z/ A/ G,, [D,A,C]2 [D,F,C] | [D,F,C]2 [D,F,C] [G,,G,]2 [G,,G,] | %16
 [G,,G,]2 [G,,G,] [B,,G,]2 [C,G,] |[M:5/8] [D,G,]2 [D,F,] [G,,G,]2 |] %18
V:3
 x6 | x6 | x6 | x6 |[M:5/8] x5 |[M:1/8] x |[M:3/4] x6 | x6 | x6 | x6 | x6 | %11
 z z/ A,/ [G,D] [D,G,D]2 [D,F,D] | x6 | x2[K:bass] x4 | G,,2 z2 z2 | x6 | x6 |[M:5/8] x5 |] %18
V:4
 x6 | x6 | x6 | x6 |[M:5/8] x5 |[M:1/8] x |[M:3/4] x6 | x6 | x6 | x6 | x6 | x6 | x6 | F2 .G2 z C | %14
 x6 | x6 | x6 |[M:5/8] x5 |] %18

